X:1
T:Trip to Pakistan
R:slow reel
Z:Barney <G.Bahn-Koepke@t-online.de> irtrad-l 2001-11-12
M:4/4
L:1/8
Q:170
K:G
EG BE ~G3 B|A2 AG FG AF|EG BE ~G3 B|AG FG E4:||
EG BG c2 cA|BA GB AG FG|EG BG ~c3 A|BA GB A2 (3DEF|
EG BG c2 cA|BA GB AG FG|EG BG ~c3 A|BA GB A4||
FG BF GB FG|EF GE FG EF|DF AD FA DF|AG FG~E3z1:||
